X:1
T:Title
%%score { ( 1 4 ) | ( 2 3 ) }
L:1/8
Q:1/4=100
M:4/4
K:Eb
V:1 treble nm="Grand Piano"
V:4 treble 
V:2 bass 
V:3 bass 
V:1
 G2 G2 G>F E2 | [Ac]2 [GB]>[_G=A] [=GB]2 [EG]2 | [GB]2 [FA]>[=EG] [FA]2 [DF]2 | [Ac]2 [GB]>A G4 | %4
w: F.~A.~Atkins * * * *||||
 G2 G2 G>F E2 | [Ac]2 [GB]>=A [EGB]2 [B,EG]2 | [B,DB]2 [B,DA]2 [DF]>[FA] [EG]>[DF] |[M:3/4] E6 | %8
w: ||||
[M:1/4] (3Bcd |[M:4/4] z2 G>G (3G-[Gd]e [Gf]>[Ge] | c6 z2 | B6 z2 |[M:3/4] G6 |[M:1/4] (3Bcd | %14
w: ||||||
[M:4/4] z2 G>G (3G-[Gd]e [Gf]>[Ge] | c6 z2 | B6 z2 | e6 z2 |] %18
w: ||||
V:2
 z4 B,2 z2 | [E,E]2 [E,E]2 [E,E]2 [E,B,]2 | [B,,B,]2 [B,,B,]2 [B,,B,]2 [B,,B,]2 | %3
 [B,,B,]2 z z/ F/ [E,B,E]4 | z4 B,2 z2 | z2 [E,E]2 z4 | %6
 B,,2 z z/ G/ [B,,B,]>[B,,B,] [B,,B,]>[B,,A,] |[M:3/4] [E,G,]6 |[M:1/4] z2 | %9
[M:4/4] z2 [E,B,]>[E,B,] (3:2:2E,2 G [E,B,]>[E,E] | [A,EA]>[A,E] [A,E]>[A,E] [A,E]2 z2 | %11
 z z/ [B,E]/ [B,D]>[B,E] [B,F]>[K:bass]B,, B,,>B,, |[M:3/4] [E,E]>[E,B,] [E,B,]>[E,B,] [E,B,]2 | %13
[M:1/4] z2 |[M:4/4] z2 [E,B,]>[E,B,] (3:2:2E,2 G [E,B,]>[E,E] | %15
 [A,EA]>[A,E] [A,E]>[A,E] [A,E]2 z2 | z z/ [B,E]/ [B,D]>[B,E] [B,F]>[K:bass]B,, B,,>[B,,B,] | %17
 [E,B,]>[E,C] [E,B,]>[E,=A,] [E,B,]2 z2 |] %18
V:3
 [E,B,E]2 [E,B,E]2 [E,E]->[E,A,E] [E,G,]2 | x8 | x8 | z2 [B,,B,]2 z4 | %4
 [E,B,E]2 [E,B,E]2 [E,E]->[E,A,E] [E,G,]2 | [E,E]2 z z/ _G/ E,2 E,2 | z2 B,,2 z4 |[M:3/4] x6 | %8
[M:1/4] x2 |[M:4/4] z4 B,>E, z2 | x8 | x11/2[K:bass] x5/2 |[M:3/4] x6 |[M:1/4] x2 | %14
[M:4/4] z4 B,>E, z2 | x8 | x11/2[K:bass] x5/2 | x8 |] %18
V:4
 x8 | x8 | x8 | x8 | x8 | x8 | x8 |[M:3/4] x6 |[M:1/4] x2 |[M:4/4] e4- e/ z/ z/ B,/ z2 | %10
 z z/ A/ A>A A>e d>c | z z/ G/ F>G A>[DAB] [DAc]>[DAB] |[M:3/4] z z/ E/ E>E E2 |[M:1/4] x2 | %14
[M:4/4] e4- e/ z/ z/ B,/ z2 | z z/ A/ A>A A>e d>c | z z/ G/ F>G A>[DAB] [DAc]>[Ad] | %17
 G>A G>_G =G2 z2 |] %18

